static/img/kroki/41eb01cce7a39d0aa929ea09b9f51ad8.svg

<?xml version="1.0" encoding="us-ascii" standalone="no"?><svg xmlns="http://www.w3.org/2000/svg" xmlns:xlink="http://www.w3.org/1999/xlink" contentStyleType="text/css" height="895px" preserveAspectRatio="none" style="width:335px;height:895px;" version="1.1" viewBox="0 0 335 895" width="335px" zoomAndPan="magnify"><defs/><g><!--class gcp_machine_type--><g id="elem_gcp_machine_type"><rect codeLine="23" fill="#3D176E" height="39.7891" id="gcp_machine_type" rx="2.5" ry="2.5" style="stroke:#000D19;stroke-width:0.5;" width="197" x="28.5" y="849.73"/><ellipse cx="43.5" cy="869.6245" fill="#ADD1B2" rx="11" ry="11" style="stroke:#181818;stroke-width:1.0;"/><path d="M46.4688,875.2652 Q45.8906,875.562 45.25,875.7027 Q44.6094,875.8589 43.9063,875.8589 Q41.4063,875.8589 40.0781,874.2183 Q38.7656,872.562 38.7656,869.437 Q38.7656,866.312 40.0781,864.6558 Q41.4063,862.9995 43.9063,862.9995 Q44.6094,862.9995 45.25,863.1558 Q45.9063,863.312 46.4688,863.6089 L46.4688,866.3277 Q45.8438,865.7495 45.25,865.4839 Q44.6563,865.2027 44.0313,865.2027 Q42.6875,865.2027 42,866.2808 Q41.3125,867.3433 41.3125,869.437 Q41.3125,871.5308 42,872.6089 Q42.6875,873.6714 44.0313,873.6714 Q44.6563,873.6714 45.25,873.4058 Q45.8438,873.1245 46.4688,872.5464 L46.4688,875.2652 Z " fill="#000000"/><text fill="#D9B8FF" font-family="Helvetica" font-size="17" lengthAdjust="spacing" textLength="155" x="62.5" y="875.5098">gcp_machine_type</text></g><!--class gcp_resource--><g id="elem_gcp_resource"><rect codeLine="26" fill="#3D176E" height="39.7891" id="gcp_resource" rx="2.5" ry="2.5" style="stroke:#000D19;stroke-width:0.5;" width="150" x="7" y="267.57"/><ellipse cx="22" cy="287.4645" fill="#ADD1B2" rx="11" ry="11" style="stroke:#181818;stroke-width:1.0;"/><path d="M24.9688,293.1052 Q24.3906,293.402 23.75,293.5427 Q23.1094,293.6989 22.4063,293.6989 Q19.9063,293.6989 18.5781,292.0583 Q17.2656,290.402 17.2656,287.277 Q17.2656,284.152 18.5781,282.4958 Q19.9063,280.8395 22.4063,280.8395 Q23.1094,280.8395 23.75,280.9958 Q24.4063,281.152 24.9688,281.4489 L24.9688,284.1677 Q24.3438,283.5895 23.75,283.3239 Q23.1563,283.0427 22.5313,283.0427 Q21.1875,283.0427 20.5,284.1208 Q19.8125,285.1833 19.8125,287.277 Q19.8125,289.3708 20.5,290.4489 Q21.1875,291.5114 22.5313,291.5114 Q23.1563,291.5114 23.75,291.2458 Q24.3438,290.9645 24.9688,290.3864 L24.9688,293.1052 Z " fill="#000000"/><text fill="#D9B8FF" font-family="Helvetica" font-size="17" lengthAdjust="spacing" textLength="108" x="41" y="293.3498">gcp_resource</text></g><!--class instance_type--><g id="elem_instance_type"><rect codeLine="29" fill="#3D176E" height="39.7891" id="instance_type" rx="2.5" ry="2.5" style="stroke:#000D19;stroke-width:0.5;" width="158" x="145" y="688.94"/><ellipse cx="160" cy="708.8345" fill="#ADD1B2" rx="11" ry="11" style="stroke:#181818;stroke-width:1.0;"/><path d="M162.9688,714.4752 Q162.3906,714.772 161.75,714.9127 Q161.1094,715.0689 160.4063,715.0689 Q157.9063,715.0689 156.5781,713.4283 Q155.2656,711.772 155.2656,708.647 Q155.2656,705.522 156.5781,703.8658 Q157.9063,702.2095 160.4063,702.2095 Q161.1094,702.2095 161.75,702.3658 Q162.4063,702.522 162.9688,702.8189 L162.9688,705.5377 Q162.3438,704.9595 161.75,704.6939 Q161.1563,704.4127 160.5313,704.4127 Q159.1875,704.4127 158.5,705.4908 Q157.8125,706.5533 157.8125,708.647 Q157.8125,710.7408 158.5,711.8189 Q159.1875,712.8814 160.5313,712.8814 Q161.1563,712.8814 161.75,712.6158 Q162.3438,712.3345 162.9688,711.7564 L162.9688,714.4752 Z " fill="#000000"/><text fill="#D9B8FF" font-family="Helvetica" font-size="17" lengthAdjust="spacing" textLength="116" x="179" y="714.7198">instance_type</text></g><!--class phantom_resource--><g id="elem_phantom_resource"><rect codeLine="32" fill="#3D176E" height="39.7891" id="phantom_resource" rx="2.5" ry="2.5" style="stroke:#000D19;stroke-width:0.5;" width="198" x="130" y="167.79"/><ellipse cx="145" cy="187.6845" fill="#ADD1B2" rx="11" ry="11" style="stroke:#181818;stroke-width:1.0;"/><path d="M147.9688,193.3252 Q147.3906,193.622 146.75,193.7627 Q146.1094,193.9189 145.4063,193.9189 Q142.9063,193.9189 141.5781,192.2783 Q140.2656,190.622 140.2656,187.497 Q140.2656,184.372 141.5781,182.7158 Q142.9063,181.0595 145.4063,181.0595 Q146.1094,181.0595 146.75,181.2158 Q147.4063,181.372 147.9688,181.6689 L147.9688,184.3877 Q147.3438,183.8095 146.75,183.5439 Q146.1563,183.2627 145.5313,183.2627 Q144.1875,183.2627 143.5,184.3408 Q142.8125,185.4033 142.8125,187.497 Q142.8125,189.5908 143.5,190.6689 Q144.1875,191.7314 145.5313,191.7314 Q146.1563,191.7314 146.75,191.4658 Q147.3438,191.1845 147.9688,190.6064 L147.9688,193.3252 Z " fill="#000000"/><text fill="#D9B8FF" font-family="Helvetica" font-size="17" lengthAdjust="spacing" textLength="156" x="164" y="193.5698">phantom_resource</text></g><!--class quota--><g id="elem_quota"><rect codeLine="35" fill="#3D176E" height="39.7891" id="quota" rx="2.5" ry="2.5" style="stroke:#000D19;stroke-width:0.5;" width="90" x="181" y="367.36"/><ellipse cx="196" cy="387.2545" fill="#ADD1B2" rx="11" ry="11" style="stroke:#181818;stroke-width:1.0;"/><path d="M198.9688,392.8952 Q198.3906,393.192 197.75,393.3327 Q197.1094,393.4889 196.4063,393.4889 Q193.9063,393.4889 192.5781,391.8483 Q191.2656,390.192 191.2656,387.067 Q191.2656,383.942 192.5781,382.2858 Q193.9063,380.6295 196.4063,380.6295 Q197.1094,380.6295 197.75,380.7858 Q198.4063,380.942 198.9688,381.2389 L198.9688,383.9577 Q198.3438,383.3795 197.75,383.1139 Q197.1563,382.8327 196.5313,382.8327 Q195.1875,382.8327 194.5,383.9108 Q193.8125,384.9733 193.8125,387.067 Q193.8125,389.1608 194.5,390.2389 Q195.1875,391.3014 196.5313,391.3014 Q197.1563,391.3014 197.75,391.0358 Q198.3438,390.7545 198.9688,390.1764 L198.9688,392.8952 Z " fill="#000000"/><text fill="#D9B8FF" font-family="Helvetica" font-size="17" lengthAdjust="spacing" textLength="48" x="215" y="393.1398">quota</text></g><!--class resource--><g id="elem_resource"><rect codeLine="38" fill="#3D176E" height="39.7891" id="resource" rx="2.5" ry="2.5" style="stroke:#000D19;stroke-width:0.5;" width="113" x="55.5" y="7"/><ellipse cx="70.5" cy="26.8945" fill="#ADD1B2" rx="11" ry="11" style="stroke:#181818;stroke-width:1.0;"/><path d="M73.4688,32.5352 Q72.8906,32.832 72.25,32.9727 Q71.6094,33.1289 70.9063,33.1289 Q68.4063,33.1289 67.0781,31.4883 Q65.7656,29.832 65.7656,26.707 Q65.7656,23.582 67.0781,21.9258 Q68.4063,20.2695 70.9063,20.2695 Q71.6094,20.2695 72.25,20.4258 Q72.9063,20.582 73.4688,20.8789 L73.4688,23.5977 Q72.8438,23.0195 72.25,22.7539 Q71.6563,22.4727 71.0313,22.4727 Q69.6875,22.4727 69,23.5508 Q68.3125,24.6133 68.3125,26.707 Q68.3125,28.8008 69,29.8789 Q69.6875,30.9414 71.0313,30.9414 Q71.6563,30.9414 72.25,30.6758 Q72.8438,30.3945 73.4688,29.8164 L73.4688,32.5352 Z " fill="#000000"/><text fill="#D9B8FF" font-family="Helvetica" font-size="17" lengthAdjust="spacing" textLength="71" x="89.5" y="32.7798">resource</text></g><!--class type--><g id="elem_type"><rect codeLine="41" fill="#3D176E" height="39.7891" id="type" rx="2.5" ry="2.5" style="stroke:#000D19;stroke-width:0.5;" width="79" x="185.5" y="528.15"/><ellipse cx="200.5" cy="548.0445" fill="#ADD1B2" rx="11" ry="11" style="stroke:#181818;stroke-width:1.0;"/><path d="M203.4688,553.6852 Q202.8906,553.982 202.25,554.1227 Q201.6094,554.2789 200.9063,554.2789 Q198.4063,554.2789 197.0781,552.6383 Q195.7656,550.982 195.7656,547.857 Q195.7656,544.732 197.0781,543.0758 Q198.4063,541.4195 200.9063,541.4195 Q201.6094,541.4195 202.25,541.5758 Q202.9063,541.732 203.4688,542.0289 L203.4688,544.7477 Q202.8438,544.1695 202.25,543.9039 Q201.6563,543.6227 201.0313,543.6227 Q199.6875,543.6227 199,544.7008 Q198.3125,545.7633 198.3125,547.857 Q198.3125,549.9508 199,551.0289 Q199.6875,552.0914 201.0313,552.0914 Q201.6563,552.0914 202.25,551.8258 Q202.8438,551.5445 203.4688,550.9664 L203.4688,553.6852 Z " fill="#000000"/><text fill="#D9B8FF" font-family="Helvetica" font-size="17" lengthAdjust="spacing" textLength="37" x="219.5" y="553.9298">type</text></g><!--reverse link gcp_resource to gcp_machine_type--><g id="link_gcp_resource_gcp_machine_type"><path codeLine="44" d="M85.3619,325.6812 C88.2319,358.4212 92,409.05 92,467.15 C92,467.15 92,467.15 92,709.84 C92,761.21 109.69,819.8 119.92,849.37 " fill="none" id="gcp_resource-backto-gcp_machine_type" style="stroke:#FFAF37;stroke-width:2.0;"/><polygon fill="none" points="83.79,307.75,79.3848,326.2052,91.3389,325.1573,83.79,307.75" style="stroke:#FFAF37;stroke-width:2.0;"/></g><!--reverse link instance_type to gcp_machine_type--><g id="link_instance_type_gcp_machine_type"><path codeLine="45" d="M202.918,744.3516 C184.278,774.8716 157.41,818.84 138.74,849.4 " fill="none" id="instance_type-backto-gcp_machine_type" style="stroke:#FFAF37;stroke-width:2.0;"/><polygon fill="none" points="212.3,728.99,197.7975,741.2242,208.0385,747.4789,212.3,728.99" style="stroke:#FFAF37;stroke-width:2.0;"/></g><!--reverse link resource to gcp_resource--><g id="link_resource_gcp_resource"><path codeLine="46" d="M107.7175,64.7803 C102.1875,112.4903 89.83,218.97 84.25,267.08 " fill="none" id="resource-backto-gcp_resource" style="stroke:#FFAF37;stroke-width:2.0;"/><polygon fill="none" points="109.79,46.9,101.7574,64.0895,113.6776,65.4711,109.79,46.9" style="stroke:#FFAF37;stroke-width:2.0;"/></g><!--reverse link type to instance_type--><g id="link_type_instance_type"><path codeLine="47" d="M224.7679,586.1997 C224.5779,616.7197 224.31,658.05 224.12,688.61 " fill="none" id="type-backto-instance_type" style="stroke:#FFAF37;stroke-width:2.0;"/><polygon fill="none" points="224.88,568.2,218.7681,586.1623,230.7678,586.237,224.88,568.2" style="stroke:#FFAF37;stroke-width:2.0;"/></g><!--reverse link resource to phantom_resource--><g id="link_resource_phantom_resource"><path codeLine="48" d="M136.7881,61.5306 C159.2781,92.0506 192.32,136.9 214.84,167.46 " fill="none" id="resource-backto-phantom_resource" style="stroke:#FFAF37;stroke-width:2.0;"/><polygon fill="none" points="126.11,47.04,131.9579,65.09,141.6183,57.9713,126.11,47.04" style="stroke:#FFAF37;stroke-width:2.0;"/></g><!--reverse link phantom_resource to quota--><g id="link_phantom_resource_quota"><path codeLine="49" d="M228.4337,225.9779 C227.8537,263.7579 226.87,329.04 226.29,366.88 " fill="none" id="phantom_resource-backto-quota" style="stroke:#FFAF37;stroke-width:2.0;"/><polygon fill="none" points="228.71,207.98,222.4344,225.8858,234.433,226.07,228.71,207.98" style="stroke:#FFAF37;stroke-width:2.0;"/></g><!--reverse link quota to type--><g id="link_quota_type"><path codeLine="50" d="M225.7679,425.4097 C225.5779,455.9297 225.31,497.26 225.12,527.83 " fill="none" id="quota-backto-type" style="stroke:#FFAF37;stroke-width:2.0;"/><polygon fill="none" points="225.88,407.41,219.7681,425.3723,231.7678,425.447,225.88,407.41" style="stroke:#FFAF37;stroke-width:2.0;"/></g><!--SRC=[XP1FJm8n4CNl_HHDE9E0H8742v8OlH0ZtidGJjc6RRjEknByyzrrMT7kTe7hcz-yUMyoBP6ZASAU6pHh9C_yLji220oV4RdTtEMEU4yfKADnUtZlRBW8BC0WVy3y3OCMq2PUCYss5htdLz7e3iHsGwwqihOF1DR_ZD26Y9hduFqi1DBhCc0KHaxN4wNQPDkqDvB3yGqcc2E9z8iC1WCvdBQHYwVEzluZbleT-J1-si85J68c9mxKsPGL4OLCYXxd9pC-WPJQRlXrf3tNcSWYDVHb1jBjAbf1xkCpFY2X2_i2vqahd4wa6dV2ZwTW9ghNyOqeLWP4fYskAfv_CFOLpGYzAqaqT6rz02lIXI836vpfN7ejNO1Ow8B-3HktRp_x_NuIbJLpd80wJ8uIY_OQNksbTY-M5AsvGqTMDwsLWzit]--></g></svg>

<svg xmlns="http://www.w3.org/2000/svg" width="335" height="895" viewBox="0 0 335 895"><rect width="197" height="39.789" x="28.5" y="849.73" fill="#3D176E" rx="2.5" ry="2.5" style="stroke:#000d19;stroke-width:.5"/><circle cx="43.5" cy="869.625" r="11" fill="#ADD1B2" style="stroke:#181818;stroke-width:1"/><path d="M46.469 875.265q-.578.297-1.219.438-.64.156-1.344.156-2.5 0-3.828-1.64-1.312-1.657-1.312-4.782t1.312-4.781Q41.406 863 43.906 863q.703 0 1.344.156.656.156 1.219.453v2.719q-.625-.578-1.219-.844-.594-.281-1.219-.281-1.343 0-2.031 1.078-.687 1.062-.687 3.156t.687 3.172q.688 1.062 2.031 1.062.625 0 1.219-.265.594-.281 1.219-.86z"/><text x="62.5" y="875.51" fill="#D9B8FF" font-family="Helvetica" font-size="17" textLength="155">gcp_machine_type</text><rect width="150" height="39.789" x="7" y="267.57" fill="#3D176E" rx="2.5" ry="2.5" style="stroke:#000d19;stroke-width:.5"/><circle cx="22" cy="287.464" r="11" fill="#ADD1B2" style="stroke:#181818;stroke-width:1"/><path d="M24.969 293.105q-.578.297-1.219.438-.64.156-1.344.156-2.5 0-3.828-1.64-1.312-1.657-1.312-4.782t1.312-4.781q1.328-1.656 3.828-1.656.703 0 1.344.156.656.156 1.219.453v2.719q-.625-.579-1.219-.844-.594-.281-1.219-.281-1.343 0-2.031 1.078-.687 1.062-.687 3.156t.687 3.172q.688 1.062 2.031 1.062.625 0 1.219-.265.594-.281 1.219-.86z"/><text x="41" y="293.35" fill="#D9B8FF" font-family="Helvetica" font-size="17" textLength="108">gcp_resource</text><rect width="158" height="39.789" x="145" y="688.94" fill="#3D176E" rx="2.5" ry="2.5" style="stroke:#000d19;stroke-width:.5"/><circle cx="160" cy="708.835" r="11" fill="#ADD1B2" style="stroke:#181818;stroke-width:1"/><path d="M162.969 714.475q-.578.297-1.219.438-.64.156-1.344.156-2.5 0-3.828-1.64-1.312-1.657-1.312-4.782t1.312-4.781q1.328-1.656 3.828-1.656.703 0 1.344.156.656.156 1.219.453v2.719q-.625-.578-1.219-.844-.594-.281-1.219-.281-1.344 0-2.031 1.078-.687 1.062-.687 3.156t.687 3.172q.688 1.062 2.031 1.062.625 0 1.219-.265.594-.281 1.219-.86z"/><text x="179" y="714.72" fill="#D9B8FF" font-family="Helvetica" font-size="17" textLength="116">instance_type</text><rect width="198" height="39.789" x="130" y="167.79" fill="#3D176E" rx="2.5" ry="2.5" style="stroke:#000d19;stroke-width:.5"/><circle cx="145" cy="187.685" r="11" fill="#ADD1B2" style="stroke:#181818;stroke-width:1"/><path d="M147.969 193.325q-.578.297-1.219.438-.64.156-1.344.156-2.5 0-3.828-1.64-1.312-1.657-1.312-4.782t1.312-4.781q1.328-1.656 3.828-1.656.703 0 1.344.156.656.156 1.219.453v2.719q-.625-.578-1.219-.844-.594-.281-1.219-.281-1.344 0-2.031 1.078-.687 1.062-.687 3.156t.687 3.172q.688 1.062 2.031 1.062.625 0 1.219-.265.594-.281 1.219-.86z"/><text x="164" y="193.57" fill="#D9B8FF" font-family="Helvetica" font-size="17" textLength="156">phantom_resource</text><rect width="90" height="39.789" x="181" y="367.36" fill="#3D176E" rx="2.5" ry="2.5" style="stroke:#000d19;stroke-width:.5"/><circle cx="196" cy="387.255" r="11" fill="#ADD1B2" style="stroke:#181818;stroke-width:1"/><path d="M198.969 392.895q-.578.297-1.219.438-.64.156-1.344.156-2.5 0-3.828-1.64-1.312-1.657-1.312-4.782t1.312-4.781q1.328-1.656 3.828-1.656.703 0 1.344.156.656.156 1.219.453v2.719q-.625-.579-1.219-.844-.594-.281-1.219-.281-1.344 0-2.031 1.078-.687 1.062-.687 3.156t.687 3.172q.688 1.062 2.031 1.062.625 0 1.219-.265.594-.281 1.219-.86z"/><text x="215" y="393.14" fill="#D9B8FF" font-family="Helvetica" font-size="17" textLength="48">quota</text><rect width="113" height="39.789" x="55.5" y="7" fill="#3D176E" rx="2.5" ry="2.5" style="stroke:#000d19;stroke-width:.5"/><circle cx="70.5" cy="26.895" r="11" fill="#ADD1B2" style="stroke:#181818;stroke-width:1"/><path d="M73.469 32.535q-.578.297-1.219.438-.64.156-1.344.156-2.5 0-3.828-1.64-1.312-1.657-1.312-4.782t1.312-4.781q1.328-1.656 3.828-1.656.703 0 1.344.156.656.156 1.219.453v2.719q-.625-.578-1.219-.844-.594-.281-1.219-.281-1.344 0-2.031 1.078-.687 1.062-.687 3.156T69 29.879q.688 1.062 2.031 1.062.625 0 1.219-.265.594-.281 1.219-.86z"/><text x="89.5" y="32.78" fill="#D9B8FF" font-family="Helvetica" font-size="17" textLength="71">resource</text><rect width="79" height="39.789" x="185.5" y="528.15" fill="#3D176E" rx="2.5" ry="2.5" style="stroke:#000d19;stroke-width:.5"/><circle cx="200.5" cy="548.044" r="11" fill="#ADD1B2" style="stroke:#181818;stroke-width:1"/><path d="M203.469 553.685q-.578.297-1.219.438-.64.156-1.344.156-2.5 0-3.828-1.64-1.312-1.657-1.312-4.782t1.312-4.781q1.328-1.657 3.828-1.657.703 0 1.344.157.656.156 1.219.453v2.719q-.625-.579-1.219-.844-.594-.281-1.219-.281-1.344 0-2.031 1.078-.687 1.062-.687 3.156t.687 3.172q.688 1.062 2.031 1.062.625 0 1.219-.265.594-.282 1.219-.86z"/><text x="219.5" y="553.93" fill="#D9B8FF" font-family="Helvetica" font-size="17" textLength="37">type</text><g fill="none"><path d="M85.362 325.681C88.232 358.421 92 409.05 92 467.15v242.69c0 51.37 17.69 109.96 27.92 139.53" style="stroke:#ffaf37;stroke-width:2"/><path d="m83.79 307.75-4.405 18.455 11.954-1.048z" style="stroke:#ffaf37;stroke-width:2"/></g><path fill="none" d="M202.918 744.352c-18.64 30.52-45.508 74.488-64.178 105.048m73.56-120.41-14.502 12.234 10.24 6.255z" style="stroke:#ffaf37;stroke-width:2"/><g fill="none"><path d="M107.718 64.78c-5.53 47.71-17.888 154.19-23.468 202.3" style="stroke:#ffaf37;stroke-width:2"/><path d="m109.79 46.9-8.033 17.19 11.92 1.381z" style="stroke:#ffaf37;stroke-width:2"/></g><path fill="none" d="M224.768 586.2c-.19 30.52-.458 71.85-.648 102.41m.76-120.41-6.112 17.962 12 .075z" style="stroke:#ffaf37;stroke-width:2"/><g fill="none"><path d="M136.788 61.53c22.49 30.52 55.532 75.37 78.052 105.93" style="stroke:#ffaf37;stroke-width:2"/><path d="m126.11 47.04 5.848 18.05 9.66-7.119z" style="stroke:#ffaf37;stroke-width:2"/></g><g fill="none"><path d="M228.434 225.978c-.58 37.78-1.564 103.062-2.144 140.902" style="stroke:#ffaf37;stroke-width:2"/><path d="m228.71 207.98-6.276 17.906 11.999.184z" style="stroke:#ffaf37;stroke-width:2"/></g><path fill="none" d="M225.768 425.41c-.19 30.52-.458 71.85-.648 102.42m.76-120.42-6.112 17.962 12 .075z" style="stroke:#ffaf37;stroke-width:2"/></svg>
